resources/svg/text.svg

<svg xmlns="http://www.w3.org/2000/svg" viewBox="0 0 15 15" fill="currentColor"><path fill-rule="evenodd" clip-rule="evenodd" d="M1 1h13v4h-1V2H8v11h3v1H3.5v-1H7V2H2v3H1V1z" fill="currentColor"/></svg>

<svg xmlns="http://www.w3.org/2000/svg" viewBox="0 0 15 15" fill="currentColor"><path fill-rule="evenodd" clip-rule="evenodd" d="M1 1H14V5H13V2H8V13H11V14H3.5V13H7V2H2V5H1V1Z" fill="black"/></svg>
